icons/device/camera.svg

<svg width="32" height="32" viewBox="0 0 32 32" fill="none" xmlns="http://www.w3.org/2000/svg">
<path fill-rule="evenodd" clip-rule="evenodd" d="M12.4142 4C11.8838 4 11.3751 4.21071 11 4.58579L8.58579 7H4C2.89543 7 2 7.89543 2 9V24C2 25.1046 2.89543 26 4 26H28C29.1046 26 30 25.1046 30 24V9C30 7.89543 29.1046 7 28 7H23.4142L21 4.58579C20.6249 4.21071 20.1162 4 19.5858 4H12.4142ZM12.4142 6L19.5858 6L22 8.41421C22.3751 8.78929 22.8838 9 23.4142 9H28V24H4V9H8.58579C9.11622 9 9.62493 8.78929 10 8.41421L12.4142 6ZM12 16C12 13.7909 13.7909 12 16 12C18.2091 12 20 13.7909 20 16C20 18.2091 18.2091 20 16 20C13.7909 20 12 18.2091 12 16ZM16 10C12.6863 10 10 12.6863 10 16C10 19.3137 12.6863 22 16 22C19.3137 22 22 19.3137 22 16C22 12.6863 19.3137 10 16 10Z" fill="black"/>
</svg>

<svg viewBox="0 0 32 32" xmlns="http://www.w3.org/2000/svg"><path fill-rule="evenodd" d="M12.414 4A2 2 0 0011 4.586L8.586 7H4a2 2 0 00-2 2v15a2 2 0 002 2h24a2 2 0 002-2V9a2 2 0 00-2-2h-4.586L21 4.586A2 2 0 0019.586 4h-7.172zm0 2h7.172L22 8.414A2 2 0 0023.414 9H28v15H4V9h4.586A2 2 0 0010 8.414L12.414 6zM12 16a4 4 0 118 0 4 4 0 01-8 0zm4-6a6 6 0 100 12 6 6 0 000-12z"/></svg>
